!!!OTL: WAER ICH EIN MUNTERES VOEGELEIN
!!!ARE: Europa, Mitteleuropa, Deutschland
!!!SCT: F1102
!!!YEM: Copyright 1995, estate of Helmut Schaffrath.
**kern
*ICvox
*Ivox
*M2/4
*k[f#]
*G:
{8d
=1
8b
16b
16a
8g
8g
=2
16dd
16ee
16dd
16cc
8b}
{8b
=3
8.a
16a
16g
16f#
16e
16d
=4
8dd
8b
8g}
{8b
=5
8.a
16b
8a
8a
=6
16dd
16cc#
16dd
16cc#
8dd}
{8cc
=7
8.b
16b
16dd
16cc
16b
16a
=8
8g
16b
16a
8g}
{8b
=9
8cc
4r
8dd#
=10
8ee
4r}
{8gg
=11
8.dd
16b
16dd
16cc
16a
16b
=12
8g
4r}
{8cc#
=13
8dd
4r
8cc#
=14
8dd
4r}
{8dd
=15
8.b
16b
8a
8a
=16
8g
4r}
==
!!!AGN: Natur - Lied
!!!ONB: ESAC (Essen Associative Code) Database: FINK
!!!AMT: simple duple
!!!AIN: vox
!!!EED: Helmut Schaffrath
!!!EEV: 1.0
*-
